X:7849
T:At the village inn
C:anon.
O:USA
N:See also "Cirkus-polka".
R:Polka
Z:Transcribed by Frank Nordberg - http://www.musicaviva.com
F:http://abc.musicaviva.com/tunes/usa/village-inn.abc
M:C
L:1/4
K:C
Hc2|:"G7".B.B.B.B|"G7".A.A.A.A|"C".G.G.G.G|"C"E2A2|
"G7".G.G.G.G|"G7"F2A2|"C".G.G.G.G|"C"E2c2|
"G7".B.B.B.B|"G7".A.A.A.A|"C".G.G.G.G|"C"E2G2|
"F".A.A.A.A|"G7".B.B.B.B|"C".c.c"G7".B.B|[1"C"c2 c2:|[2"C"c2|]
W:
W:See also "Cirkus-polka".
W:
W:
W:  From Musica Viva - http://www.musicaviva.com
W:  the Internet center for free sheet music downloads.
